src/main/resources/icons/KubernetesIcons/icons/customResourceDefinition.svg

<svg width="16" height="16" viewBox="0 0 16 16" fill="none" xmlns="http://www.w3.org/2000/svg">
<path d="M14.5 5.18965L15 5.18965L15 4.68965L14.5 4.68965L14.5 5.18965ZM14.5 8.91381L14.5 9.41381L15 9.41381L15 8.91381L14.5 8.91381ZM10.7759 5.18965L10.2759 5.18965L10.2759 5.68965L10.7759 5.68965L10.7759 5.18965ZM10.7759 4.47503L10.5255 4.04223L10.2759 4.18664L10.2759 4.47503L10.7759 4.47503ZM8.91379 4.47502L9.41379 4.47502L9.41379 4.18663L9.16415 4.04222L8.91379 4.47502ZM8.91379 5.18965L8.91379 5.68965L9.41379 5.68965L9.41379 5.18965L8.91379 5.18965ZM5.18966 5.18965L5.18966 4.68965L4.68966 4.68965L4.68966 5.18965L5.18966 5.18965ZM5.18965 9L5.18965 9.5L5.68965 9.5L5.68965 9L5.18965 9ZM4.52189 9L4.07647 9.22717L4.21562 9.5L4.52189 9.5L4.52189 9ZM4.3226 11L4.3226 10.5L4.08078 10.5L3.93064 10.6896L4.3226 11ZM5.18965 11L5.68965 11L5.68965 10.5L5.18965 10.5L5.18965 11ZM5.18965 14.5L4.68965 14.5L4.68965 15L5.18965 15L5.18965 14.5ZM14.5 14.5L14.5 15L15 15L15 14.5L14.5 14.5ZM14.5 10.7759L15 10.7759L15 10.2759L14.5 10.2759L14.5 10.7759ZM13.9509 10.7759L13.9509 10.2759L13.6625 10.2759L13.5181 10.5255L13.9509 10.7759ZM13.9509 8.91381L13.5181 9.16416L13.6625 9.4138L13.9509 9.4138L13.9509 8.91381ZM14 5.18965L14 8.91381L15 8.91381L15 5.18965L14 5.18965ZM10.7759 5.68965L14.5 5.68965L14.5 4.68965L10.7759 4.68965L10.7759 5.68965ZM10.2759 4.47503L10.2759 5.18965L11.2759 5.18965L11.2759 4.47503L10.2759 4.47503ZM11.2069 2.86207C11.2069 3.3656 10.9339 3.80597 10.5255 4.04223L11.0262 4.90784C11.7309 4.50018 12.2069 3.737 12.2069 2.86207L11.2069 2.86207ZM9.84483 1.5C10.5971 1.5 11.2069 2.10982 11.2069 2.86207L12.2069 2.86207C12.2069 1.55753 11.1494 0.5 9.84483 0.5L9.84483 1.5ZM8.48277 2.86207C8.48277 2.10982 9.09258 1.5 9.84483 1.5L9.84483 0.5C8.5403 0.5 7.48277 1.55753 7.48277 2.86207L8.48277 2.86207ZM9.16415 4.04222C8.75573 3.80595 8.48277 3.36559 8.48277 2.86207L7.48277 2.86207C7.48277 3.73699 7.95871 4.50016 8.66342 4.90782L9.16415 4.04222ZM9.41379 5.18965L9.41379 4.47502L8.41379 4.47502L8.41379 5.18965L9.41379 5.18965ZM5.18966 5.68965L8.91379 5.68965L8.91379 4.68965L5.18966 4.68965L5.18966 5.68965ZM5.68965 9L5.68966 5.18965L4.68966 5.18965L4.68965 9L5.68965 9ZM4.52189 9.5L5.18965 9.5L5.18965 8.5L4.52189 8.5L4.52189 9.5ZM2.86206 8.48277C3.39111 8.48277 3.8506 8.78429 4.07647 9.22717L4.9673 8.77283C4.57732 8.00819 3.78149 7.48277 2.86206 7.48277L2.86206 8.48277ZM1.49999 9.84484C1.49999 9.09259 2.10981 8.48277 2.86206 8.48277L2.86206 7.48277C1.55753 7.48277 0.499992 8.54031 0.499992 9.84484L1.49999 9.84484ZM2.86206 11.2069C2.10981 11.2069 1.49999 10.5971 1.49999 9.84484L0.499992 9.84484C0.499992 11.1494 1.55753 12.2069 2.86206 12.2069L2.86206 11.2069ZM3.93064 10.6896C3.68034 11.0056 3.29486 11.2069 2.86206 11.2069L2.86206 12.2069C3.61327 12.2069 4.28275 11.8557 4.71457 11.3104L3.93064 10.6896ZM5.18965 10.5L4.3226 10.5L4.3226 11.5L5.18965 11.5L5.18965 10.5ZM5.68965 14.5L5.68965 11L4.68965 11L4.68965 14.5L5.68965 14.5ZM14.5 14L5.18965 14L5.18965 15L14.5 15L14.5 14ZM14 10.7759L14 14.5L15 14.5L15 10.7759L14 10.7759ZM14.5 10.2759L13.9509 10.2759L13.9509 11.2759L14.5 11.2759L14.5 10.2759ZM12.3379 12.2069C13.2129 12.2069 13.976 11.731 14.3837 11.0262L13.5181 10.5255C13.2818 10.9339 12.8415 11.2069 12.3379 11.2069L12.3379 12.2069ZM9.97586 9.84483C9.97586 11.1494 11.0334 12.2069 12.3379 12.2069L12.3379 11.2069C11.5857 11.2069 10.9759 10.5971 10.9759 9.84483L9.97586 9.84483ZM12.3379 7.48276C11.0334 7.48276 9.97586 8.54029 9.97586 9.84483L10.9759 9.84483C10.9759 9.09258 11.5857 8.48276 12.3379 8.48276L12.3379 7.48276ZM14.3837 8.66345C13.976 7.95872 13.2129 7.48276 12.3379 7.48276L12.3379 8.48276C12.8415 8.48276 13.2818 8.75573 13.5181 9.16416L14.3837 8.66345ZM13.9509 9.4138L14.5 9.41381L14.5 8.41381L13.9509 8.41381L13.9509 9.4138Z" fill="#40B6E0" fill-opacity="0.6"/>
</svg>

<svg width="16" height="16" viewBox="0 0 16 16" fill="none" xmlns="http://www.w3.org/2000/svg"><rect id="frame" width="16" height="16" fill="none"/><path d="M14.5 5.19h.5v-.5h-.5v.5zm0 3.724v.5h.5v-.5h-.5zM10.776 5.19h-.5v.5h.5v-.5zm0-.715l-.25-.433-.25.145v.288h.5zm-1.862 0h.5v-.288l-.25-.145-.25.433zm0 .715v.5h.5v-.5h-.5zm-3.724 0v-.5h-.5v.5h.5zm0 3.81v.5h.5V9h-.5zm-.668 0l-.446.227.14.273h.306V9zm-.2 2v-.5h-.241l-.15.19.392.31zm.868 0h.5v-.5h-.5v.5zm0 3.5h-.5v.5h.5v-.5zm9.31 0v.5h.5v-.5h-.5zm0-3.724h.5v-.5h-.5v.5zm-.55 0v-.5h-.287l-.145.25.433.25zm0-1.862l-.432.25.144.25h.289v-.5zM14 5.19v3.724h1V5.19h-1zm-3.224.5H14.5v-1h-3.724v1zm-.5-1.215v.715h1v-.715h-1zm.93-1.613c0 .504-.272.944-.68 1.18l.5.866a2.361 2.361 0 0 0 1.18-2.046h-1zM9.846 1.5c.752 0 1.362.61 1.362 1.362h1A2.362 2.362 0 0 0 9.845.5v1zM8.483 2.862c0-.752.61-1.362 1.362-1.362v-1a2.362 2.362 0 0 0-2.362 2.362h1zm.681 1.18a1.361 1.361 0 0 1-.681-1.18h-1c0 .875.476 1.638 1.18 2.046l.501-.866zm.25 1.148v-.715h-1v.715h1zm-4.224.5h3.724v-1H5.19v1zM5.69 9V5.19h-1V9h1zm-1.168.5h.668v-1h-.668v1zm-1.66-1.017c.53 0 .989.301 1.214.744l.891-.454a2.362 2.362 0 0 0-2.105-1.29v1zM1.5 9.845c0-.752.61-1.362 1.362-1.362v-1A2.362 2.362 0 0 0 .5 9.845h1zm1.362 1.362c-.752 0-1.362-.61-1.362-1.362h-1a2.362 2.362 0 0 0 2.362 2.362v-1zm1.069-.517c-.25.316-.636.517-1.069.517v1c.751 0 1.42-.351 1.853-.897l-.784-.62zm1.259-.19h-.867v1h.867v-1zm.5 4V11h-1v3.5h1zm8.81-.5H5.19v1h9.31v-1zm-.5-3.224V14.5h1v-3.724h-1zm.5-.5h-.55v1h.55v-1zm-2.162 1.93c.875 0 1.638-.475 2.046-1.18l-.866-.5a1.361 1.361 0 0 1-1.18.68v1zM9.976 9.846a2.362 2.362 0 0 0 2.362 2.362v-1c-.752 0-1.362-.61-1.362-1.362h-1zm2.362-2.362a2.362 2.362 0 0 0-2.362 2.362h1c0-.752.61-1.362 1.362-1.362v-1zm2.046 1.18a2.361 2.361 0 0 0-2.046-1.18v1c.504 0 .944.273 1.18.681l.866-.5zm-.433.75h.549v-1h-.55v1z" fill="#40B6E0" fill-opacity=".6"/></svg>
